usr/share/icons/biglinux-icons-material/22/actions/snap-text-baseline.svg

<svg xmlns="http://www.w3.org/2000/svg" viewBox="0 0 22 22">
  <defs id="defs3051">
    <style type="text/css" id="current-color-scheme">
      .ColorScheme-Text {
        color:#dedede;
      }
      .ColorScheme-Highlight {
        color:#3daee9;
      }
      </style>
  </defs>
 <path 
     style="fill:currentColor;fill-opacity:1;stroke:none" 
     d="M 9.9101562 3 L 6.5957031 12.59375 L 6.4726562 13 L 5.3671875 16 L 6 16 L 6 17 L 6.6582031 17 L 8.2832031 12.5625 L 13.716797 12.5625 L 15.341797 17 L 17 17 L 15.527344 13 L 15.404297 12.59375 L 12.089844 3 L 11.875 3 L 10.125 3 L 9.9101562 3 z M 11.015625 4.9375 L 13.195312 11.28125 L 8.8046875 11.28125 L 11.015625 4.9375 z "
     class="ColorScheme-Text"
     />
 <path 
     style="fill:currentColor;fill-opacity:1;stroke:none" 
     d="M 3 15 L 3 19 L 7 19 L 7 15 L 3 15 z M 4 16 L 6 16 L 6 18 L 4 18 L 4 16 z "
     class="ColorScheme-Highlight"
     />
</svg>

<svg xmlns="http://www.w3.org/2000/svg" viewBox="0 0 22 22"><path d="m9.91 3-3.314 9.594-.123.406-1.106 3H6v1h.658l1.625-4.438h5.434L15.342 17H17l-1.473-4-.123-.406L12.09 3H9.91zm1.106 1.938 2.18 6.343H8.804l2.21-6.344z" style="fill:currentColor;fill-opacity:1;stroke:none;color:#dedede"/><path d="M3 15v4h4v-4H3zm1 1h2v2H4v-2z" style="fill:currentColor;fill-opacity:1;stroke:none;color:#3daee9"/></svg>
